;FLAVOR:UltiGCode
;TIME:3655
;MATERIAL:7554
;MATERIAL2:0
;NOZZLE_DIAMETER:0.4
;MINX:7.8
;MINY:101.692
;MINZ:0.27
;MAXX:215.2
;MAXY:121.308
;MAXZ:5.07
;TARGET_MACHINE.NAME:Ultimaker 2+
;Generated with Cura_SteamEngine 5.9.0
M82 ;absolute extrusion mode
G0 F3000 Y50 ;avoid prime blob
G92 E0
G92 E0
G10
;LAYER_COUNT:25
;LAYER:0
M107
G0 F7200 X43.075 Y121.202 Z0.27
;TYPE:SKIRT
G11
G1 F1800 X40.826 Y121.308 E0.24316
G1 X39.807 Y121.098 E0.35553
G1 X38.659 Y120.279 E0.50783
G1 X38.44 Y120.009 E0.54537
G1 X37.845 Y120.2 E0.61286
G1 X11.061 Y120.2 E3.50554
G1 X10.187 Y120.01 E3.60213
G1 X9.409 Y119.536 E3.70052
G1 X8.309 Y118.402 E3.87115
G1 X7.8 Y116.833 E4.04929
G1 X7.8 Y105.9 E5.23006
G1 X8.232 Y104.63 E5.37494
G1 X9.587 Y103.313 E5.57901
G1 X11.159 Y102.8 E5.7576
G1 X38.053 Y102.8 E8.66215
G1 X38.529 Y102.941 E8.71577
G1 X39.281 Y102.216 E8.82858
G1 X40.626 Y101.767 E8.98172
G1 X42.174 Y101.692 E9.1491
G1 X43.193 Y101.902 E9.26146
G1 X44.338 Y102.718 E9.41331
G1 X44.559 Y102.99 E9.45116
G1 X45.14 Y102.8 E9.51718
G1 X168.052 Y102.8 E22.79168
G1 X168.528 Y102.941 E22.84529
G1 X169.28 Y102.216 E22.95811
G1 X170.625 Y101.767 E23.11125
G1 X172.174 Y101.692 E23.27874
G1 X173.193 Y101.902 E23.3911
G1 X174.338 Y102.718 E23.54295
G1 X174.559 Y102.99 E23.5808
G1 X175.14 Y102.8 E23.64682
G1 X212.1 Y102.8 E27.6385
G1 X213.37 Y103.232 E27.78338
G1 X214.687 Y104.587 E27.98745
G1 X215.2 Y106.159 E28.16604
G1 X215.2 Y116.814 E29.31678
G1 X214.926 Y117.886 E29.43628
G1 X214.168 Y119.059 E29.58711
G1 X213.341 Y119.648 E29.69676
G1 X212.072 Y120.2 E29.84622
G1 X175.039 Y120.2 E33.84578
G1 X174.503 Y120.082 E33.90506
G1 X173.64 Y120.816 E34.02741
G1 X172.836 Y121.212 E34.12421
G1 X170.826 Y121.308 E34.34153
G1 X169.807 Y121.098 E34.4539
G1 X168.659 Y120.279 E34.6062
G1 X168.44 Y120.009 E34.64375
G1 X167.845 Y120.2 E34.71124
G1 X45.04 Y120.2 E47.97418
G1 X44.469 Y120.075 E48.03731
G1 X43.511 Y120.987 E48.18016
G1 X43.075 Y121.202 E48.23266
G0 F7200 X43.235 Y120.697
G1 F1800 X43.056 Y120.802 E48.25507
G1 X40.857 Y120.906 E48.49283
G1 X39.97 Y120.723 E48.59064
G1 X38.891 Y119.953 E48.7338
G1 X38.59 Y119.529 E48.78996
G1 X37.845 Y119.8 E48.87558
G1 X11.105 Y119.8 E51.7635
G1 X10.338 Y119.633 E51.84828
G1 X9.658 Y119.219 E51.93426
G1 X8.66 Y118.19 E52.08907
G1 X8.2 Y116.772 E52.25007
G1 X8.2 Y105.967 E53.41701
G1 X8.58 Y104.85 E53.54444
G1 X9.8 Y103.664 E53.7282
G1 X11.222 Y103.2 E53.88974
G1 X38.053 Y103.2 E56.78749
G1 X38.631 Y103.399 E56.85351
G1 X39.495 Y102.566 E56.98313
G1 X40.698 Y102.164 E57.12011
G1 X42.143 Y102.094 E57.27636
G1 X43.03 Y102.277 E57.37417
G1 X44.106 Y103.044 E57.51688
G1 X44.404 Y103.461 E57.57223
G1 X45.203 Y103.2 E57.66301
G1 X168.052 Y103.2 E70.9307
G1 X168.63 Y103.399 E70.99672
G1 X169.494 Y102.566 E71.12634
G1 X170.697 Y102.164 E71.26333
G1 X172.143 Y102.094 E71.41968
G1 X173.03 Y102.277 E71.51749
G1 X174.106 Y103.044 E71.6602
G1 X174.404 Y103.461 E71.71556
G1 X175.203 Y103.2 E71.80633
G1 X212.033 Y103.2 E75.78397
G1 X213.15 Y103.58 E75.9114
G1 X214.336 Y104.8 E76.09516
G1 X214.8 Y106.222 E76.2567
G1 X214.8 Y116.762 E77.39502
G1 X214.554 Y117.725 E77.50237
G1 X213.874 Y118.777 E77.63765
G1 X213.144 Y119.297 E77.73445
G1 X211.988 Y119.8 E77.87061
G1 X175.084 Y119.8 E81.85624
G1 X174.395 Y119.649 E81.93242
G1 X173.419 Y120.479 E82.07078
G1 X172.734 Y120.816 E82.15323
G1 X170.857 Y120.906 E82.35618
G1 X169.97 Y120.723 E82.454
G1 X168.891 Y119.953 E82.59716
G1 X168.59 Y119.529 E82.65331
G1 X167.845 Y119.8 E82.73893
G1 X45.084 Y119.8 E95.99712
G1 X44.347 Y119.639 E96.07859
G1 X43.235 Y120.697 E96.24436
G0 F7200 X42.96 Y120.406
G1 F1800 X40.888 Y120.504 E96.46839
G1 X40.133 Y120.348 E96.55165
G1 X39.123 Y119.627 E96.68567
G1 X38.758 Y119.042 E96.76014
G1 X37.774 Y119.4 E96.87323
G1 X11.149 Y119.4 E99.74873
G1 X10.489 Y119.256 E99.82169
G1 X9.907 Y118.902 E99.89526
G1 X9.011 Y117.978 E100.03426
G1 X8.6 Y116.711 E100.17812
G1 X8.6 Y106.034 E101.33123
G1 X8.928 Y105.07 E101.44121
G1 X10.013 Y104.015 E101.60465
G1 X11.285 Y103.6 E101.74915
G1 X37.987 Y103.6 E104.63297
G1 X38.787 Y103.876 E104.72437
G1 X38.95 Y103.639 E104.75543
G1 X39.707 Y102.917 E104.86841
G1 X40.77 Y102.561 E104.98948
G1 X42.112 Y102.496 E105.13459
G1 X42.867 Y102.652 E105.21785
G1 X43.874 Y103.37 E105.35142
G1 X44.232 Y103.938 E105.42393
G1 X45.266 Y103.6 E105.54142
G1 X167.986 Y103.6 E118.79518
G1 X168.786 Y103.876 E118.88658
G1 X168.949 Y103.639 E118.91764
G1 X169.706 Y102.917 E119.03062
G1 X170.769 Y102.561 E119.15169
G1 X172.112 Y102.496 E119.2969
G1 X172.867 Y102.652 E119.38017
G1 X173.874 Y103.37 E119.51374
G1 X174.232 Y103.938 E119.58625
G1 X175.266 Y103.6 E119.70374
G1 X211.966 Y103.6 E123.66734
G1 X212.93 Y103.928 E123.77731
G1 X213.985 Y105.013 E123.94075
G1 X214.4 Y106.285 E124.08525
G1 X214.4 Y116.71 E125.21115
G1 X214.182 Y117.564 E125.30634
G1 X213.58 Y118.495 E125.42608
G1 X212.947 Y118.946 E125.51002
G1 X211.904 Y119.4 E125.63288
G1 X175.129 Y119.4 E129.60458
G1 X174.535 Y119.27 E129.67025
G1 X174.232 Y119.105 E129.70751
G1 X173.994 Y119.465 E129.75412
G1 X173.197 Y120.143 E129.86712
G1 X172.633 Y120.42 E129.93499
G1 X170.888 Y120.504 E130.12366
G1 X170.133 Y120.348 E130.20693
G1 X169.123 Y119.627 E130.34095
G1 X168.758 Y119.042 E130.41542
G1 X167.774 Y119.4 E130.5285
G1 X45.129 Y119.4 E143.77416
G1 X44.535 Y119.27 E143.83983
G1 X44.23 Y119.105 E143.87729
G1 X44.059 Y119.366 E143.91098
G1 X42.96 Y120.406 E144.0744
G0 F7200 X42.792 Y120.013
G1 F1800 X40.919 Y120.102 E144.27691
G1 X40.296 Y119.973 E144.34562
G1 X39.42 Y119.348 E144.46184
G1 X38.888 Y118.493 E144.5706
G1 X38.622 Y118.666 E144.60487
G1 X37.703 Y119 E144.71047
G1 X11.193 Y119 E147.57355
G1 X10.64 Y118.879 E147.63469
G1 X10.156 Y118.585 E147.69585
G1 X9.362 Y117.766 E147.81904
G1 X9 Y116.65 E147.94575
G1 X9 Y106.101 E149.08504
G1 X9.276 Y105.29 E149.17757
G1 X10.226 Y104.366 E149.32069
G1 X11.348 Y104 E149.44815
G1 X37.919 Y104 E152.31782
G1 X38.639 Y104.245 E152.39996
G1 X38.9 Y104.451 E152.43587
G1 X39.226 Y103.928 E152.50243
G1 X39.918 Y103.268 E152.6057
G1 X40.842 Y102.958 E152.71096
G1 X42.081 Y102.898 E152.84493
G1 X42.704 Y103.027 E152.91364
G1 X43.579 Y103.651 E153.02971
G1 X44.097 Y104.473 E153.13464
G1 X44.296 Y104.337 E153.16068
G1 X45.329 Y104 E153.27803
G1 X167.918 Y104 E166.51764
G1 X168.638 Y104.245 E166.59978
G1 X168.899 Y104.451 E166.63569
G1 X169.225 Y103.928 E166.70225
G1 X169.917 Y103.268 E166.80552
G1 X170.841 Y102.958 E166.91078
G1 X172.081 Y102.898 E167.04486
G1 X172.704 Y103.027 E167.11357
G1 X173.579 Y103.651 E167.22964
G1 X174.097 Y104.473 E167.33457
G1 X174.296 Y104.337 E167.3606
G1 X175.329 Y104 E167.47795
G1 X211.899 Y104 E171.42751
G1 X212.71 Y104.276 E171.52004
G1 X213.634 Y105.226 E171.66316
G1 X214 Y106.348 E171.79062
G1 X214 Y116.658 E172.9041
G1 X213.81 Y117.403 E172.98714
G1 X213.286 Y118.213 E173.09133
G1 X212.75 Y118.595 E173.16241
G1 X211.82 Y119 E173.27196
G1 X175.173 Y119 E177.22984
G1 X174.62 Y118.879 E177.29098
G1 X174.097 Y118.545 E177.358
G1 X173.735 Y119.16 E177.43507
G1 X172.938 Y119.838 E177.54808
G1 X172.533 Y120.024 E177.59621
G1 X170.919 Y120.102 E177.77072
G1 X170.296 Y119.973 E177.83943
G1 X169.42 Y119.348 E177.95565
G1 X168.888 Y118.492 E178.0645
G1 X168.626 Y118.664 E178.09835
G1 X167.703 Y119 E178.20443
G1 X45.173 Y119 E191.43767
G1 X44.62 Y118.879 E191.49881
G1 X44.097 Y118.545 E191.56583
G1 X43.784 Y119.075 E191.63231
G1 X42.792 Y120.013 E191.77975
G0 F7200 X42.624 Y119.62
G1 F1800 X40.9 Y119.702 E191.96616
G1 X40.461 Y119.599 E192.01486
G1 X39.716 Y119.068 E192.11366
G1 X39.242 Y118.316 E192.20967
G1 X39.112 Y117.841 E192.26285
G1 X38.485 Y118.29 E192.34614
G1 X37.632 Y118.6 E192.44416
G1 X11.193 Y118.6 E195.29957
G1 X10.733 Y118.49 E195.35065
G1 X10.443 Y118.307 E195.38769
G1 X9.714 Y117.555 E195.5008
G1 X9.4 Y116.588 E195.6106
G1 X9.4 Y106.168 E196.73596
G1 X9.624 Y105.51 E196.81103
G1 X10.439 Y104.717 E196.93384
G1 X11.411 Y104.4 E197.04426
G1 X37.852 Y104.4 E199.89989
G1 X38.51 Y104.624 E199.97496
G1 X39.021 Y105.149 E200.05408
G1 X39.031 Y104.999 E200.07032
G1 X39.538 Y104.183 E200.17407
G1 X40.13 Y103.619 E200.26238
G1 X40.915 Y103.355 E200.35182
G1 X42.1 Y103.298 E200.47995
G1 X42.539 Y103.401 E200.52865
G1 X43.284 Y103.932 E200.62746
G1 X43.758 Y104.684 E200.72346
G1 X43.902 Y105.221 E200.78351
G1 X44.42 Y104.717 E200.86156
G1 X45.392 Y104.4 E200.97198
G1 X167.851 Y104.4 E214.19755
G1 X168.509 Y104.624 E214.27262
G1 X169.02 Y105.149 E214.35174
G1 X169.03 Y104.999 E214.36798
G1 X169.537 Y104.183 E214.47173
G1 X170.129 Y103.619 E214.56004
G1 X170.914 Y103.355 E214.64949
G1 X172.1 Y103.298 E214.77772
G1 X172.539 Y103.401 E214.82642
G1 X173.284 Y103.932 E214.92523
G1 X173.758 Y104.684 E215.02123
G1 X173.902 Y105.221 E215.08128
G1 X174.42 Y104.717 E215.15933
G1 X175.392 Y104.4 E215.26975
G1 X211.832 Y104.4 E219.20527
G1 X212.49 Y104.624 E219.28034
G1 X213.283 Y105.439 E219.40315
G1 X213.6 Y106.411 E219.51357
G1 X213.6 Y116.606 E220.61463
G1 X213.438 Y117.242 E220.68551
G1 X212.992 Y117.931 E220.77415
G1 X212.553 Y118.244 E220.83238
G1 X211.736 Y118.6 E220.92863
G1 X175.173 Y118.6 E224.87743
G1 X174.713 Y118.49 E224.92851
G1 X174.423 Y118.307 E224.96555
G1 X173.975 Y117.845 E225.03505
G1 X173.966 Y117.979 E225.04955
G1 X173.424 Y118.899 E225.16487
G1 X172.679 Y119.533 E225.27052
G1 X172.439 Y119.628 E225.2984
G1 X170.9 Y119.702 E225.46481
G1 X170.461 Y119.599 E225.5135
G1 X169.716 Y119.068 E225.61231
G1 X169.242 Y118.316 E225.70831
G1 X169.11 Y117.833 E225.76239
G1 X168.489 Y118.288 E225.84553
G1 X167.632 Y118.6 E225.94403
G1 X45.173 Y118.6 E239.16961
G1 X44.713 Y118.49 E239.22069
G1 X44.423 Y118.307 E239.25772
G1 X43.975 Y117.845 E239.32722
G1 X43.966 Y117.979 E239.34173
G1 X43.468 Y118.823 E239.44756
G1 X42.624 Y119.62 E239.57294
G0 F7200 X42.457 Y119.227
G1 F1800 X40.881 Y119.302 E239.74334
G1 X40.63 Y119.228 E239.7716
G1 X40.011 Y118.787 E239.85368
G1 X39.58 Y118.103 E239.94099
G1 X39.434 Y117.453 E240.01294
G1 X39.619 Y116.585 E240.10879
G1 X39.62 Y106.434 E241.2051
G1 X39.412 Y105.144 E241.34622
G1 X39.851 Y104.438 E241.43601
G1 X40.342 Y103.97 E241.50927
G1 X40.988 Y103.752 E241.5829
G1 X42.119 Y103.698 E241.70519
G1 X42.37 Y103.772 E241.73345
G1 X42.989 Y104.213 E241.81553
G1 X43.42 Y104.897 E241.90284
G1 X43.566 Y105.547 E241.97479
G1 X43.381 Y106.413 E242.07043
G1 X43.38 Y116.561 E243.16642
G1 X43.585 Y117.837 E243.30599
G1 X43.152 Y118.571 E243.39803
G1 X42.457 Y119.227 E243.50124
G0 F7200 X45.213 Y118.2
G1 F1800 X167.561 Y118.2 E256.71483
G1 X168.298 Y117.932 E256.79952
G1 X168.86 Y117.527 E256.87434
G1 X169.219 Y116.726 E256.96914
G1 X169.219 Y106.474 E258.07635
G1 X168.951 Y105.652 E258.16973
G1 X168.289 Y104.972 E258.27222
G1 X167.784 Y104.8 E258.32984
G1 X45.455 Y104.8 E271.54137
G1 X44.633 Y105.068 E271.63475
G1 X43.953 Y105.73 E271.73724
G1 X43.781 Y106.235 E271.79486
G1 X43.78 Y116.526 E272.90629
G1 X44.046 Y117.344 E272.99918
G1 X44.71 Y118.029 E273.10222
G1 X44.909 Y118.141 E273.12688
G1 X45.213 Y118.2 E273.16032
G10
G0 F7200 X37.561 Y118.2
G11
G1 F1800 X11.233 Y118.2 E276.00375
G1 X10.929 Y118.141 E276.03719
G1 X10.73 Y118.029 E276.06185
G1 X10.066 Y117.344 E276.16489
G1 X9.8 Y116.526 E276.25778
G1 X9.8 Y106.235 E277.36921
G1 X9.972 Y105.73 E277.42683
G1 X10.652 Y105.068 E277.52932
G1 X11.474 Y104.8 E277.6227
G1 X37.785 Y104.8 E280.46429
G1 X38.29 Y104.972 E280.5219
G1 X38.952 Y105.652 E280.6244
G1 X39.22 Y106.474 E280.71777
G1 X39.219 Y116.727 E281.8251
G1 X38.859 Y117.53 E281.92014
G1 X38.298 Y117.932 E281.99467
G1 X37.561 Y118.2 E282.07937
G0 F7200 X37.49 Y117.8
G1 F1800 X11.233 Y117.8 E284.91513
G1 X11.017 Y117.751 E284.93905
G1 X10.418 Y117.133 E285.032
G1 X10.2 Y116.463 E285.10809
G1 X10.2 Y106.235 E286.21271
G1 X10.251 Y106.017 E286.23689
G1 X10.865 Y105.419 E286.32946
G1 X11.537 Y105.2 E286.40579
G1 X37.785 Y105.2 E289.24058
G1 X38.003 Y105.251 E289.26476
G1 X38.601 Y105.865 E289.35732
G1 X38.82 Y106.537 E289.43365
G1 X38.819 Y116.641 E290.52489
G1 X38.538 Y117.268 E290.59909
G1 X38.161 Y117.556 E290.65033
G1 X37.49 Y117.8 E290.72744
G0 F7200 X40.862 Y118.902
G1 F1800 X40.306 Y118.506 E290.80116
G1 X39.955 Y117.949 E290.87227
G1 X39.843 Y117.451 E290.92739
G1 X40.019 Y116.627 E291.01839
G1 X40.02 Y106.657 E292.09515
G1 X39.979 Y106.146 E292.15052
G1 X39.831 Y105.228 E292.25094
G1 X40.191 Y104.649 E292.32458
G1 X40.554 Y104.32 E292.37749
G1 X41.007 Y104.152 E292.42967
G1 X42.138 Y104.098 E292.55195
G1 X42.694 Y104.494 E292.62567
G1 X43.045 Y105.051 E292.69678
G1 X43.157 Y105.549 E292.75191
G1 X42.981 Y106.373 E292.8429
G1 X42.98 Y116.343 E293.91966
G1 X43.021 Y116.85 E293.9746
G1 X43.167 Y117.758 E294.07392
G1 X42.835 Y118.321 E294.14451
G1 X42.291 Y118.834 E294.22527
G1 X40.862 Y118.902 E294.37977
G0 F7200 X42.125 Y118.441
G1 F1800 X40.965 Y118.496 E294.50519
G1 X40.601 Y118.225 E294.5542
G1 X40.293 Y117.736 E294.61662
G1 X40.234 Y117.535 E294.63924
G1 X40.419 Y116.669 E294.73488
G1 X40.42 Y106.637 E295.81834
G1 X40.377 Y106.102 E295.8763
G1 X40.25 Y105.312 E295.96272
G1 X40.531 Y104.86 E296.0202
G1 X40.81 Y104.628 E296.05939
G1 X41.026 Y104.552 E296.08412
G1 X42.035 Y104.504 E296.19321
G1 X42.399 Y104.775 E296.24222
G1 X42.707 Y105.264 E296.30464
G1 X42.766 Y105.465 E296.32726
G1 X42.581 Y106.331 E296.4229
G1 X42.58 Y116.363 E297.50636
G1 X42.623 Y116.898 E297.56432
G1 X42.749 Y117.679 E297.64976
G1 X42.49 Y118.118 E297.70481
G1 X42.125 Y118.441 E297.75745
G0 F7200 X41.919 Y117.559
G1 F1800 X41.836 Y117.653 E297.77099
G1 X41.179 Y117.684 E297.84203
G1 X41.057 Y117.51 E297.86498
G1 X41.181 Y116.928 E297.92925
G1 X41.219 Y116.4 E297.98642
G1 X41.22 Y106.599 E299.04492
G1 X41.173 Y106.01 E299.10874
G1 X41.081 Y105.441 E299.17099
G1 X41.164 Y105.347 E299.18453
G1 X41.821 Y105.316 E299.25557
G1 X41.943 Y105.49 E299.27852
G1 X41.819 Y106.072 E299.34278
G1 X41.781 Y106.6 E299.39996
G1 X41.78 Y116.401 E300.45846
G1 X41.827 Y116.99 E300.52228
G1 X41.919 Y117.559 E300.58453
G0 F7200 X41.982 Y118.047
G1 F1800 X41.07 Y118.09 E300.68313
G1 X40.852 Y117.914 E300.71339
G1 X40.642 Y117.54 E300.75972
G1 X40.819 Y116.71 E300.85137
G1 X40.82 Y106.618 E301.94131
G1 X40.775 Y106.056 E302.0022
G1 X40.665 Y105.374 E302.07681
G1 X40.862 Y105.085 E302.11458
G1 X41.045 Y104.952 E302.13901
G1 X41.93 Y104.91 E302.2347
G1 X42.148 Y105.086 E302.26496
G1 X42.358 Y105.46 E302.31128
G1 X42.181 Y106.29 E302.40294
G1 X42.18 Y116.382 E303.49288
G1 X42.225 Y116.944 E303.55377
G1 X42.334 Y117.618 E303.6275
G1 X42.216 Y117.827 E303.65342
G1 X41.982 Y118.047 E303.68811
G0 F7200 X37.419 Y117.4
G1 F1800 X11.233 Y117.4 E306.5162
G1 X10.77 Y116.922 E306.58807
G1 X10.6 Y116.4 E306.64736
G1 X10.6 Y106.235 E307.74518
G1 X11.078 Y105.77 E307.8172
G1 X11.6 Y105.6 E307.87649
G1 X37.785 Y105.6 E310.70447
G1 X38.25 Y106.078 E310.77649
G1 X38.42 Y106.6 E310.83578
G1 X38.419 Y116.556 E311.91103
G1 X38.214 Y117.014 E311.96523
G1 X38.024 Y117.18 E311.99247
G1 X37.419 Y117.4 E312.062
G0 F7200 X37.619 Y116.499
G1 F1800 X37.419 Y116.6 E312.0862
G1 X11.501 Y116.6 E314.88534
G1 X11.4 Y116.4 E314.90954
G1 X11.4 Y106.501 E315.97863
G1 X11.6 Y106.4 E316.00283
G1 X37.519 Y106.4 E318.80208
G1 X37.62 Y106.6 E318.82628
G1 X37.619 Y116.499 E319.89537
G0 F7200 X37.869 Y116.811
G1 F1800 X37.419 Y117 E319.94808
G1 X11.368 Y117 E322.76159
G1 X11.144 Y116.78 E322.7955
G1 X11 Y116.4 E322.83939
G1 X11 Y106.369 E323.92274
G1 X11.22 Y106.144 E323.95672
G1 X11.6 Y106 E324.00061
G1 X37.651 Y106 E326.81412
G1 X37.876 Y106.22 E326.8481
G1 X38.02 Y106.6 E326.89199
G1 X38.019 Y116.556 E327.96724
G1 X37.869 Y116.811 E327.99919
G10
G0 F7200 X38.116 Y116.811
G0 X44.218 Y117.057
G0 X172.42 Y119.228
G11
G1 F1800 X170.881 Y119.302 E328.1656
G1 X170.63 Y119.228 E328.19386
G1 X170.011 Y118.787 E328.27594
G1 X169.58 Y118.103 E328.36325
G1 X169.434 Y117.453 E328.4352
G1 X169.619 Y116.585 E328.53105
G1 X169.619 Y106.434 E329.62736
G1 X169.411 Y105.144 E329.76848
G1 X169.85 Y104.438 E329.85827
G1 X170.341 Y103.97 E329.93152
G1 X170.987 Y103.752 E330.00516
G1 X172.119 Y103.698 E330.12755
G1 X172.37 Y103.772 E330.15582
G1 X172.989 Y104.213 E330.2379
